data/sheikah/w.svg

<!-- Generated by IcoMoon.io -->
<svg version="1.1" xmlns="http://www.w3.org/2000/svg" width="1024" height="1024" viewBox="0 0 1024 1024">
<title></title>
<g id="icomoon-ignore">
</g>
<path d="M352.5 273v279l119.5 119.5h80l119.5-119.5v-279h199l-119.5-119.5h-79.5l-119.5 119.5v279h-80v-279l-119.5-119.5h-79.5l-119.5 119.5h199zM153.5 352.5h119.5v398.5h478v-398.5h119.5v398.5l-119.5 119.5h-478l-119.5-119.5v-398.5z"></path>
</svg>

<svg xmlns="http://www.w3.org/2000/svg" width="1024" height="1024" viewBox="0 0 1024 1024">
  <title/>
  <path d="M352.5 273v279L472 671.5h80L671.5 552V273h199L751 153.5h-79.5L552 273v279h-80V273L352.5 153.5H273L153.5 273zm-199 79.5H273V751h478V352.5h119.5V751L751 870.5H273L153.5 751z"/>
</svg>
